X: 18751
T: Ievan Polkka
R: polka
M: 2/4
K: Eminor
|:e>d ef|ge eg|fd dg|f/g/f/e/ dB/d/|
e>d ef|ge e2|a2 gf|ed Bd:|
bb d/g/b|af fg|a2 gf|ed Bd|
bb d/g/b|af fg|a2 gf|ed Bd|
bb d/g/b|af fg|a2 gf|ed Bd|
e>d ef|ge eg|fd dg|f/g/f/e/ dB/d/||

